_includes/icons/ios-unchecked-checkbox.svg

<svg fill="#666" height="50" viewBox="0 0 50 50" width="50" xmlns="http://www.w3.org/2000/svg"><path d="m11 4c-3.855469 0-7 3.144531-7 7v28c0 3.855469 3.144531 7 7 7h28c3.855469 0 7-3.144531 7-7v-28c0-3.855469-3.144531-7-7-7zm0 2h28c2.773438 0 5 2.226563 5 5v28c0 2.773438-2.226562 5-5 5h-28c-2.773437 0-5-2.226562-5-5v-28c0-2.773437 2.226563-5 5-5z"/></svg>

<svg xmlns="http://www.w3.org/2000/svg" viewBox="0 0 50 50" width="50" height="50" fill="#666"><path d="M 11 4 C 7.144531 4 4 7.144531 4 11 L 4 39 C 4 42.855469 7.144531 46 11 46 L 39 46 C 42.855469 46 46 42.855469 46 39 L 46 11 C 46 7.144531 42.855469 4 39 4 Z M 11 6 L 39 6 C 41.773438 6 44 8.226563 44 11 L 44 39 C 44 41.773438 41.773438 44 39 44 L 11 44 C 8.226563 44 6 41.773438 6 39 L 6 11 C 6 8.226563 8.226563 6 11 6 Z"/></svg>
